X:1
T:La Bamba
C:Traditional Mexican
M:4/4
L:1/4
Q:140
K:C
%% Classic I-IV-V chord progression used in rock and folk
"C"C C C C | "F"F F "G"G G | "C"C E G E | "F"F "G"G "C"C z |
"C"c c c B | "F"A A "G"G G | "C"E G c G | "F"A "G"B "C"c z |]
